frontend/src/assets/chart-simple.svg

<svg xmlns="http://www.w3.org/2000/svg" viewBox="0 0 640 640"><!--!Font Awesome Free 7.1.0 by @fontawesome - https://fontawesome.com License - https://fontawesome.com/license/free Copyright 2025 Fonticons, Inc.--><path d="M256 144C256 117.5 277.5 96 304 96L336 96C362.5 96 384 117.5 384 144L384 496C384 522.5 362.5 544 336 544L304 544C277.5 544 256 522.5 256 496L256 144zM64 336C64 309.5 85.5 288 112 288L144 288C170.5 288 192 309.5 192 336L192 496C192 522.5 170.5 544 144 544L112 544C85.5 544 64 522.5 64 496L64 336zM496 160L528 160C554.5 160 576 181.5 576 208L576 496C576 522.5 554.5 544 528 544L496 544C469.5 544 448 522.5 448 496L448 208C448 181.5 469.5 160 496 160z" fill="currentColor"/></svg>

<svg xmlns="http://www.w3.org/2000/svg" viewBox="0 0 640 640"><!--!Font Awesome Free 7.1.0 by @fontawesome - https://fontawesome.com License - https://fontawesome.com/license/free Copyright 2025 Fonticons, Inc.--><path fill="currentColor" d="M256 144c0-26 22-48 48-48h32c27 0 48 22 48 48v352c0 27-21 48-48 48h-32c-26 0-48-21-48-48zM64 336c0-26 22-48 48-48h32c27 0 48 22 48 48v160c0 27-21 48-48 48h-32c-26 0-48-21-48-48zm432-176h32c27 0 48 22 48 48v288c0 27-21 48-48 48h-32c-26 0-48-21-48-48V208c0-26 22-48 48-48"/></svg>
